X: 187
T: Song of the Buffalo Hunt (c)
C: Teton Sioux band 1911-1914
N: Derived from sioux182.krn
O: South Dakota, U.S.A.
N: Teton Sioux Music by Frances Densmore, 1918
Z: transcribed to **kern format by Craig Sapp
L: 1/8
M: 2/4
Q: 1/4=58
K: Eb clef=bass
%%linebreak <none>
(3C C C [I:setbarnb 1]| 
(3E E E C C | 
C4 ||  
[M:3/4]C CC2(3C C C | 
[M:2/4]B, G,B,2 | 
G,2G, G, ||  
[M:3/4]C4(3C C C ||  
[M:2/4]B, G,B,2 | 
G,4- | 
G,2 :|]  



